X: 1
T: Lady Kinloch of Gilmerton's Strathspey
R: strathspey
B: RSCDS 29-1
O: Petrie's 4th Collection
Z: 1997 by John Chambers <jc:trillian.mit.edu>
N: Goulding: Twenty Scottish Country Dances 1793
N: "Oh soldiers, for you ain dear sakes
N: For Scotland's love, the Land o' Cakes" (Robert Fergusson)
M: C
L: 1/8
K: D
|:"D"D<D F>A d>c d>e | "(Bm)"f>e f>b a>f e>d \
| "G"B<d "D"A<d "Em"G<d "D"F>d |1 "Em"E<e e>d "A"c<e "A7"cA :|2 "Em"[BG]>e "A"[dA]>c "D"d2 Dz |]
[|"Bm"f2 fb f<d c>B | "A"e2 ea e<c B>A \
| "E"^G<e "A"A<e "E"B<e "A"c<e | "Bm"d<f "E7"e>^G "A7"A>=G F>E ||
||"D"D<D F>A d>c d>f | "Em"e>d e>f "A"e>c B>A \
| "G"B<d "D"A<d "Em"G<d "D"F>d | "Em"B<e "A"d>c "D"d2 Dz |]
